X: 211
M: 2/4
L: 1/16
K: D
d3ef2e2 | d2A2{c}B2A2 | d3ef2e2 | d4e2f2 |\
{a}g2fe {g}f2ed | {d}c2BA e2f2 | {a}g4f2e2 {g}f4e2d2 | (d4e2)A2 |
d3ef2e2 | d2A2{c}B2A2 | d3ef2e2 | d4e2f2 |\
{a}g2fe {g}f2ed | {d}c2BA d2f2 | G2ge d2c2 | d4B2c2 |
d2d2 {e}d2cB | A4B2c2 | d2d2 {e}d2cB | A4 {c}B2{d}c2 |\
{e}d2{e}d2 {e}d2cB | A2A2 {c}B2{d}c2 | {e}d2{e}d2 {e}d2cB | A4e3d |
{d}c2BA G2G2 | {A}G2F2 f3e | {e}d2cB A2A2 | {B}A2^G2 B2d2 |\
{d}c4B2d2 | {d}c4B2d2 | cAdB c2TB2 | A4 z2A2 |
d3ef2e2 | d2A2{c}B2A2 | d3ef2e2 | d4e2f2 |\
{a}g2fe {g}f2ed | {d}c2BA e2f2 | {a}g2fe {g}f2ed | (d4e2)A2 |
d3ef2e2 | d2A2{c}B2A2 | d3ef2e2 | d4e2f2 |\
{a}g2fe {g}f2ed | {d}c2BA d2f2 | B2ge d2c2 | d4 z2 |]

